build/assets/images/bg-d-full.svg

<svg width="827" height="1222" fill="none" xmlns="http://www.w3.org/2000/svg"><path d="M57 129v948h275.617c287.109 0 494.314-200.434 494.314-474 0-274.92-205.851-474-490.251-474H57zm159.806 143.554h117.165c186.892 0 331.8 138.137 331.8 331.8 0 192.309-140.845 329.092-325.028 329.092H216.806V272.554z" fill="#132631" fill-opacity=".05"/></svg>

<svg width="827" height="1222" viewBox="0 0 827 1222" fill="none" xmlns="http://www.w3.org/2000/svg">
<path d="M57 129V1077H332.617C619.726 1077 826.931 876.566 826.931 603C826.931 328.08 621.08 129 336.68 129H57ZM216.806 272.554H333.971C520.863 272.554 665.771 410.691 665.771 604.354C665.771 796.663 524.926 933.446 340.743 933.446H216.806V272.554Z" fill="#132631" fill-opacity="0.05"/>
</svg>
